X:6205
T:The Minstrel's Fancy
A:Northumberland
L:1/8
M:4/4
O:England
R:Hornpipe
Z:Richard Robinson 
%%TUNEURL: http://www.leeds.ac.uk/music/Info/RRTuneBk/gettune/00001144.html
%%ID:00001144
K:D
FG |\
AFAd BGBd | AFAd f2ed | cegf edcd | (3efe (3dcB  AGFG |
AFAd BGBd | AFAd f2ed | cegf edce | d2f2 d2 ::
ef | \
gfge cABc | dcde f2ef | gfge cABc | (3efe (3dcB  AGFG|
AFAd BGBd | AFAd f2ed | cegf edce | d2f2 d2 :|
